X:28
T:Jush of Perth. TWC.028
M:C
L:1/8
Q:1/2=60
C:'Old Scotch'
N:It sounds as if some of the top 'g' notes should be 'a' instead.
B:T.Wilson,Companion to the Ballroom,1816
Z:Village Music Project 2015 Chris Partington
K:Hp
f|"_as writ"egcg e/e/e g2|dgBg d/d/d f2|egcg e/e/e fe|dfec A/A/A A:|
|:f ecAc e/e/e g2|d/c/B/A/ GB d/d/d f2|ecAc e/e/e fe|dfec A/A/A A:|

